X:197
T:Market Day, The
T:Dark Girl in Blue, The
T:Stay for Another While
T:Fair Haired Girl, The
R:reel
C:Ed Reavy
D:Martin Quinn and Angelina Carberry
Z:id:hn-reel-197
M:C|
K:D
d2AG FDDE | FEFG AB (3=cBA | dBAG FDDg |1 fde^c d2 (3ABc :|2 fde^c d2dA ||
defg afdB | =cdef ge^ce | defg a2fd | faag fed^c |
defg afdB | =cdef g2fg | afge fded | ^cdeg fde^c ||
P:variations
|: dcAG FDDE | ~F3G ABBA | dcAG FDDg |1 fdec dgfe:|2 fdec d2 (3ABc ||
defg afed | (3Bcd ef gece | defg ~a3g | faag fdec |
defg afed | (3Bcd ef g2fg | (3agf ge fded | (3Bcd eg fdec ||

